X: 1281
T: Follow Me Down to Carlow
R:Reel
N:1st setting
N:Collected by Delaney
B:O'Neill's 1281
Z:Transcribed by Trish O'Neil
M:C|
L:1/8
K:Am
AGAG E^FGB|A^GAB cded|cBcA E^FGa|1gedB cAdc:|2gedB cAA2||
ec (3ccc ecgc|BGdG BGdG|ec((3ccc eg^fa|gedB cAA2|
agea gedB|cBcG E^FGB|A^GAB ceaf|gedB cAA2|]


